X:6
T:Kingsbridge Assembly THO4.006
M:6/8
L:1/8
Z:vmp. Peter Dunk 2010/11.from a transcription by Fynn Titford-Mock 2007
B:Thompson's Compleat Collection of 200 Favourite Country Dances Volume IV.
Q:3/8=120
K:D
g2 e g2 e|dcd A2 A|BGB AFA|GEG F2 D|g2 e g2 e|dcd A2 A|BAG FGE| D2 D D3:|
|:DFA AFD|GAB B3|Ace ecA|def f3|afd BcB|gec ABA|BAG FGE|D2 D D3:|
